X:1
T: Droplets of Brandy
C:Bruce Shawyer
R:Jig
Q:180
K:G
M:6/8
L:1/16
|:d4c2 B2G2B2|d2B2d2 g2d2B2|d4c2 B2G2B2|c2B2A2 F2E2D2|
d4c2 B2G2B2|d2B2d2 g2d2B2|c2B2c2 A2d2c2|B2G2G2 G6:|
|:G2B2d2 g2d2B2|b2g2d2 g2d2B2|G2B2d2 g2d2B2|c2B2A2 F2E2D2|
G2B2d2 g2d2B2|b2g2d2 g2d2B2|c2B2c2 A2d2c2|B2G2G2 G6:|
